src/assets/navbar-logo.svg

<svg fill="none" height="16" viewBox="0 0 123 16" width="123" xmlns="http://www.w3.org/2000/svg"><path d="m1.99128 2.44833h-1.99128v11.12457h1.99128v-4.55576h5.99503v-1.99183h-5.99503zm7.98631 13.11647h-7.98631v-1.9919h7.98631zm0-13.11647h-7.98631v-1.991838h7.98631z" fill="#0b0c0d"/><path d="m16.0665 15.5648h2.0124v-13.43432h5.0418v-1.695177h-12.096v1.695177h5.0418z" fill="#0b0c0d"/><path d="m24.7988 15.5648h2.0125v-6.92907h7.9651v6.92907h2.0125v-15.129497h-2.0125v6.505247h-7.9651v-6.505247h-2.0125z" fill="#0b0c0d"/><path d="m47.4556.435303-1.6667 2.499997-1.6666-2.499997z" fill="#000"/><path d="m45.7889 7.27741-.4248.65789.4248.6579.4249-.6579z" fill="#000"/><path clip-rule="evenodd" d="m45.7889 5.63267-1.5359 2.30263 1.5359 2.3026 1.536-2.3026zm0 .6579-1.0784 1.64473 1.0784 1.64474 1.0785-1.64474z" fill="#000" fill-rule="evenodd"/><path clip-rule="evenodd" d="m43.5994 7.9353 2.1895-3.28947 2.1896 3.28947-2.1896 3.2895z" fill="#000" fill-rule="evenodd"/><path clip-rule="evenodd" d="m47.4556 5.4353 1.6667-2.5h-3.3334-3.3333l1.6667 2.5h-3.3334l1.6667 2.5-1.6667 2.5h3.3334l-1.6667 2.5h3.3333l-1.6666 2.5h3.3333l-1.6667-2.5h3.3334l-1.6667-2.5h3.3333l-1.6666-2.5 1.6666-2.5zm0 0-1.6667-2.5-1.6666 2.5-1.6667 2.5 1.6667 2.5 1.6666 2.5 1.6667-2.5 1.6667-2.5z" fill="#000" fill-rule="evenodd"/><g fill="#0b0c0d"><path d="m64.7665 13.5729v1.9919h-7.9863v-1.9919zm-9.9776-13.116407h1.9913v13.116407h-1.9913z"/><path d="m70.7495 2.44833v-1.991837h3.9825v1.991837zm0 1.99183h-1.9913v-1.99183h1.9913zm7.9651 0v11.12464h-1.9913v-4.5558h-7.9651v4.5558h-1.9913v-11.12464h1.9913v4.57698h7.9651v-4.57698zm-3.9826 0v-1.99183h1.9913v1.99183z"/><path d="m84.7987 15.5648h2.0124v-13.43432h5.0418v-1.695177h-12.096v1.695177h5.0418z"/><path d="m96.8569 2.44833v-1.991837h3.9821v1.991837zm0 1.99183h-1.9913v-1.99183h1.9913zm7.9651 0v11.12464h-1.991v-4.5558h-7.9654v4.5558h-1.9912v-11.12464h1.9912v4.57698h7.9654v-4.57698zm-3.983 0v-1.99183h1.992v1.99183z"/><path d="m107.517 15.5648h1.906v-12.58673h.043l4.724 12.58673h1.716l4.724-12.58673h.042v12.58673h1.906v-15.129497h-2.753l-4.788 12.713797-4.766-12.713797h-2.754z"/></g></svg>

<svg width="123" height="16" viewBox="0 0 123 16" fill="none" xmlns="http://www.w3.org/2000/svg">
<path d="M1.99128 2.44833H0V13.5729H1.99128V9.01714H7.98631V7.02531H1.99128V2.44833ZM9.97759 15.5648H1.99128V13.5729H9.97759V15.5648ZM9.97759 2.44833H1.99128V0.456492H9.97759V2.44833Z" fill="#0B0C0D"/>
<path d="M16.0665 15.5648H18.0789V2.13048H23.1207V0.435303H11.0247V2.13048H16.0665V15.5648Z" fill="#0B0C0D"/>
<path d="M24.7988 15.5648H26.8113V8.63573H34.7764V15.5648H36.7889V0.435303H34.7764V6.94055H26.8113V0.435303H24.7988V15.5648Z" fill="#0B0C0D"/>
<path d="M47.4556 0.435303L45.7889 2.9353L44.1223 0.435303H47.4556Z" fill="black"/>
<path d="M45.7889 7.27741L45.3641 7.9353L45.7889 8.5932L46.2138 7.9353L45.7889 7.27741Z" fill="black"/>
<path fill-rule="evenodd" clip-rule="evenodd" d="M45.7889 5.63267L44.253 7.9353L45.7889 10.2379L47.3249 7.9353L45.7889 5.63267ZM45.7889 6.29057L44.7105 7.9353L45.7889 9.58004L46.8674 7.9353L45.7889 6.29057Z" fill="black"/>
<path fill-rule="evenodd" clip-rule="evenodd" d="M43.5994 7.9353L45.7889 4.64583L47.9785 7.9353L45.7889 11.2248L43.5994 7.9353Z" fill="black"/>
<path fill-rule="evenodd" clip-rule="evenodd" d="M47.4556 5.4353L49.1223 2.9353H45.7889H42.4556L44.1223 5.4353H40.7889L42.4556 7.9353L40.7889 10.4353H44.1223L42.4556 12.9353H45.7889L44.1223 15.4353H47.4556L45.7889 12.9353H49.1223L47.4556 10.4353H50.7889L49.1223 7.9353L50.7889 5.4353H47.4556ZM47.4556 5.4353L45.7889 2.9353L44.1223 5.4353L42.4556 7.9353L44.1223 10.4353L45.7889 12.9353L47.4556 10.4353L49.1223 7.9353L47.4556 5.4353Z" fill="black"/>
<path d="M64.7665 13.5729V15.5648H56.7802V13.5729H64.7665ZM54.7889 0.456493H56.7802V13.5729H54.7889V0.456493Z" fill="#0B0C0D"/>
<path d="M70.7495 2.44833V0.456493H74.732V2.44833H70.7495ZM70.7495 4.44016H68.7582V2.44833H70.7495V4.44016ZM78.7146 4.44016V15.5648H76.7233V11.009H68.7582V15.5648H66.7669V4.44016H68.7582V9.01714H76.7233V4.44016H78.7146ZM74.732 4.44016V2.44833H76.7233V4.44016H74.732Z" fill="#0B0C0D"/>
<path d="M84.7987 15.5648H86.8111V2.13048H91.8529V0.435303H79.7569V2.13048H84.7987V15.5648Z" fill="#0B0C0D"/>
<path d="M96.8569 2.44833V0.456493H100.839V2.44833H96.8569ZM96.8569 4.44016H94.8656V2.44833H96.8569V4.44016ZM104.822 4.44016V15.5648H102.831V11.009H94.8656V15.5648H92.8744V4.44016H94.8656V9.01714H102.831V4.44016H104.822ZM100.839 4.44016V2.44833H102.831V4.44016H100.839Z" fill="#0B0C0D"/>
<path d="M107.517 15.5648H109.423V2.97807H109.466L114.19 15.5648H115.906L120.63 2.97807H120.672V15.5648H122.578V0.435303H119.825L115.037 13.1491L110.271 0.435303H107.517V15.5648Z" fill="#0B0C0D"/>
</svg>
